src/assets/images/landing/thirdPartyLogos/medium_logo_white.svg

<svg width="127" height="40" viewBox="0 0 127 40" fill="none" xmlns="http://www.w3.org/2000/svg">
<path d="M40.6845 19.9997C40.6845 31.0453 31.7912 40 20.8204 40C9.84967 40 0.957031 31.048 0.957031 19.9997C0.957031 8.95132 9.85034 0 20.8204 0C31.7905 0 40.6845 8.95402 40.6845 19.9997Z" fill="white"/>
<path d="M62.4754 19.9997C62.4754 30.3978 58.0284 38.8264 52.5434 38.8264C47.0583 38.8264 42.6113 30.3951 42.6113 19.9997C42.6113 9.60425 47.0583 1.17297 52.5434 1.17297C58.0284 1.17297 62.4754 9.60425 62.4754 19.9997Z" fill="white"/>
<path d="M71.3888 19.9997C71.3888 29.3159 69.8247 36.8676 67.8956 36.8676C65.9665 36.8676 64.4023 29.3132 64.4023 19.9997C64.4023 10.6861 65.9665 3.13171 67.8963 3.13171C69.826 3.13171 71.3888 10.6841 71.3888 19.9997Z" fill="white"/>
<path d="M126.21 1.73427L126.265 1.72213V1.29382H114.968L104.479 25.9469L93.99 1.29382H81.8165V1.72213L81.8712 1.73427C83.9331 2.19968 84.98 2.89374 84.98 5.39682V34.7006C84.98 37.2036 83.9291 37.8977 81.8671 38.3631L81.8125 38.3753V38.8049H90.0718V38.3766L90.0171 38.3645C87.9552 37.8991 86.9084 37.205 86.9084 34.7019V7.09657L100.383 38.8049H101.147L115.014 6.21229V35.4257C114.837 37.4026 113.8 38.0131 111.933 38.4346L111.878 38.4474V38.8724H126.265V38.4474L126.21 38.4346C124.341 38.0131 123.278 37.4026 123.101 35.4257L123.092 5.39682H123.101C123.101 2.89374 124.148 2.19968 126.21 1.73427Z" fill="white"/>
</svg>

<svg xmlns="http://www.w3.org/2000/svg" width="127" height="40" fill="none"><path fill="#fff" d="M40.685 20c0 11.045-8.894 20-19.865 20S.957 31.048.957 20 9.85 0 20.82 0s19.865 8.954 19.865 20M62.475 20c0 10.398-4.447 18.826-9.932 18.826S42.611 30.396 42.611 20s4.447-18.827 9.932-18.827S62.475 9.604 62.475 20M71.389 20c0 9.316-1.564 16.868-3.493 16.868-1.93 0-3.494-7.555-3.494-16.868 0-9.314 1.564-16.868 3.494-16.868S71.39 10.684 71.39 20M126.21 1.734l.055-.012v-.428h-11.297l-10.489 24.653L93.99 1.294H81.817v.428l.054.012c2.062.466 3.109 1.16 3.109 3.663V34.7c0 2.503-1.05 3.197-3.113 3.662l-.055.012v.43h8.26v-.428l-.055-.013c-2.062-.465-3.109-1.159-3.109-3.662V7.097l13.475 31.708h.764l13.867-32.593v29.214c-.177 1.977-1.214 2.587-3.081 3.009l-.055.012v.425h14.387v-.425l-.055-.012c-1.869-.422-2.932-1.032-3.109-3.01l-.009-30.028h.009c0-2.503 1.047-3.197 3.109-3.663"/></svg>
